polaris-icons/icons/newicons/FraudProtectPendingMajor.svg

<svg width="20" height="20" viewBox="0 0 20 20" fill="none" xmlns="http://www.w3.org/2000/svg">
<path d="M11.1332 2.99272C10.4837 2.42691 9.51632 2.42691 8.86679 2.99272C7.58299 4.11105 6.11647 5.00034 4.53131 5.62172L4.11131 5.78636C3.44938 6.04584 2.97911 6.69857 3.01871 7.45474C3.21263 11.157 4.87718 13.7186 6.48767 15.3442C7.29058 16.1546 8.08121 16.7343 8.67361 17.1128C8.97025 17.3023 9.21856 17.4423 9.39576 17.5363C9.4844 17.5833 9.55539 17.6189 9.60589 17.6434C9.63115 17.6557 9.6513 17.6653 9.66599 17.6721L9.6839 17.6804L9.6897 17.683L9.6918 17.684L9.69336 17.6847C10.0714 17.854 10.5151 17.6849 10.6844 17.3069C10.8537 16.929 10.6848 16.4856 10.3072 16.316L10.3003 16.3128C10.2928 16.3093 10.2799 16.3033 10.2621 16.2946C10.2265 16.2773 10.171 16.2496 10.0985 16.2111C9.95339 16.1341 9.74042 16.0144 9.48125 15.8488C8.96201 15.517 8.26288 15.0047 7.55326 14.2885C6.13868 12.8606 4.68708 10.6299 4.51666 7.37628C4.51323 7.31071 4.55458 7.22373 4.65875 7.1829L5.07875 7.01826C6.82399 6.33413 8.4386 5.35503 9.85206 4.12376C9.93685 4.04989 10.0631 4.04989 10.1479 4.12376C11.5614 5.35503 13.176 6.33412 14.9212 7.01826L15.3412 7.1829C15.4455 7.22377 15.4868 7.3107 15.4833 7.37618C15.4467 8.07578 15.351 8.72614 15.2102 9.32987C15.1161 9.73325 15.3669 10.1365 15.7702 10.2306C16.1736 10.3247 16.5769 10.074 16.671 9.6706C16.8319 8.9806 16.94 8.24246 16.9813 7.45462C17.0209 6.69837 16.5505 6.0458 15.8887 5.78636L15.4687 5.62172C13.8835 5.00034 12.417 4.11105 11.1332 2.99272Z" fill="black"/>
<path fill-rule="evenodd" clip-rule="evenodd" d="M18 14.5C18 16.433 16.433 18 14.5 18C12.567 18 11 16.433 11 14.5C11 12.567 12.567 11 14.5 11C16.433 11 18 12.567 18 14.5ZM14.5 12.5C14.9142 12.5 15.25 12.8358 15.25 13.25V14.4393L16.0303 15.2197C16.3232 15.5126 16.3232 15.9874 16.0303 16.2803C15.7374 16.5732 15.2626 16.5732 14.9697 16.2803L14.1161 15.4268C13.8817 15.1924 13.75 14.8744 13.75 14.5429V13.25C13.75 12.8358 14.0858 12.5 14.5 12.5Z" fill="black"/>
</svg>

<svg viewBox="0 0 20 20" fill="none" xmlns="http://www.w3.org/2000/svg"><path d="M11.133 2.993a1.725 1.725 0 0 0-2.266 0 14.854 14.854 0 0 1-4.336 2.629l-.42.164a1.704 1.704 0 0 0-1.092 1.669c.194 3.702 1.858 6.264 3.469 7.89.803.81 1.593 1.39 2.186 1.768a10.448 10.448 0 0 0 .932.53l.06.03.018.007.006.003.002.001h.001a.75.75 0 0 0 .614-1.368l-.007-.003-.038-.018a8.942 8.942 0 0 1-.78-.446 11.328 11.328 0 0 1-1.929-1.56c-1.414-1.428-2.866-3.66-3.036-6.913-.004-.065.038-.152.142-.193l.42-.165a16.354 16.354 0 0 0 4.773-2.894.225.225 0 0 1 .296 0 16.355 16.355 0 0 0 4.773 2.894l.42.165c.104.04.146.128.142.193-.036.7-.132 1.35-.273 1.954a.75.75 0 0 0 1.461.34c.16-.69.269-1.428.31-2.215a1.704 1.704 0 0 0-1.092-1.669l-.42-.164a14.853 14.853 0 0 1-4.336-2.63Z" fill="#000"/><path fill-rule="evenodd" clip-rule="evenodd" d="M18 14.5a3.5 3.5 0 1 1-7 0 3.5 3.5 0 0 1 7 0Zm-3.5-2a.75.75 0 0 1 .75.75v1.19l.78.78a.75.75 0 1 1-1.06 1.06l-.854-.853a1.25 1.25 0 0 1-.366-.884v-1.293a.75.75 0 0 1 .75-.75Z" fill="#000"/></svg>
